assets/icons/qvision/directions_boat.svg

<svg width="24" height="24" viewBox="0 0 24 24" fill="none" xmlns="http://www.w3.org/2000/svg">
<g clip-path="url(#clip0_147_5196)">
<path d="M19.9999 21C18.6099 21 17.2199 20.53 15.9999 19.68C13.5599 21.39 10.4399 21.39 7.99989 19.68C6.77989 20.53 5.38989 21 3.99989 21H1.99989V23H3.99989C5.37989 23 6.73989 22.65 7.99989 22.01C10.5199 23.3 13.4799 23.3 15.9999 22.01C17.2599 22.66 18.6199 23 19.9999 23H21.9999V21H19.9999ZM3.94989 19H3.99989C5.59989 19 7.01989 18.12 7.99989 17C8.97989 18.12 10.3999 19 11.9999 19C13.5999 19 15.0199 18.12 15.9999 17C16.9799 18.12 18.3999 19 19.9999 19H20.0499L21.9399 12.32C22.0199 12.06 21.9999 11.78 21.8799 11.54C21.7599 11.3 21.5399 11.12 21.2799 11.04L19.9999 10.62V6C19.9999 4.9 19.0999 4 17.9999 4H14.9999V1H8.99989V4H5.99989C4.89989 4 3.99989 4.9 3.99989 6V10.62L2.70989 11.04C2.44989 11.12 2.22989 11.3 2.10989 11.54C1.98989 11.78 1.95989 12.06 2.04989 12.32L3.94989 19ZM5.99989 6H17.9999V9.97L11.9999 8L5.99989 9.97V6Z" fill="#323232"/>
</g>
<defs>
<clipPath id="clip0_147_5196">
<rect width="24" height="24" fill="white"/>
</clipPath>
</defs>
</svg>

<svg xmlns="http://www.w3.org/2000/svg" height="24" viewBox="0 0 24 24" width="24"><path d="M0 0h24v24H0z" fill="none"/><path d="M20 21c-1.39 0-2.78-.47-4-1.32-2.44 1.71-5.56 1.71-8 0C6.78 20.53 5.39 21 4 21H2v2h2c1.38 0 2.74-.35 4-.99 2.52 1.29 5.48 1.29 8 0 1.26.65 2.62.99 4 .99h2v-2h-2zM3.95 19H4c1.6 0 3.02-.88 4-2 .98 1.12 2.4 2 4 2s3.02-.88 4-2c.98 1.12 2.4 2 4 2h.05l1.89-6.68c.08-.26.06-.54-.06-.78s-.34-.42-.6-.5L20 10.62V6c0-1.1-.9-2-2-2h-3V1H9v3H6c-1.1 0-2 .9-2 2v4.62l-1.29.42c-.26.08-.48.26-.6.5s-.15.52-.06.78L3.95 19zM6 6h12v3.97L12 8 6 9.97V6z"/></svg>
